assets/img/login-facebook.svg

<svg width="33" height="32" viewBox="0 0 33 32" fill="none" xmlns="http://www.w3.org/2000/svg">
<g clip-path="url(#clip0_2612_3312)">
<path d="M32.2666 16C32.2666 7.16347 25.1032 3.62396e-05 16.2666 3.62396e-05C7.43004 3.62396e-05 0.266602 7.16347 0.266602 16C0.266602 23.9861 6.11757 30.6053 13.7666 31.8057V20.625H9.7041V16H13.7666V12.475C13.7666 8.46504 16.1553 6.25004 19.81 6.25004C21.5606 6.25004 23.3916 6.56254 23.3916 6.56254V10.5H21.374C19.3864 10.5 18.7666 11.7334 18.7666 12.9987V16H23.2041L22.4947 20.625H18.7666V31.8057C26.4156 30.6053 32.2666 23.9861 32.2666 16Z" fill="#3B82F6"/>
<path d="M22.4947 20.625L23.2041 16H18.7666V12.9987C18.7666 11.7333 19.3864 10.5 21.374 10.5H23.3916V6.5625C23.3916 6.5625 21.5606 6.25 19.81 6.25C16.1553 6.25 13.7666 8.465 13.7666 12.475V16H9.7041V20.625H13.7666V31.8056C14.5812 31.9334 15.4161 32 16.2666 32C17.1171 32 17.952 31.9334 18.7666 31.8056V20.625H22.4947Z" fill="white"/>
</g>
<defs>
<clipPath id="clip0_2612_3312">
<rect width="32" height="32" fill="white" transform="translate(0.266602)"/>
</clipPath>
</defs>
</svg>

<svg width="33" height="32" viewBox="0 0 33 32" fill="none" xmlns="http://www.w3.org/2000/svg"><g clip-path="url(#clip0_2612_3312)"><path d="M32.267 16c0-8.837-7.164-16-16-16-8.837 0-16 7.163-16 16 0 7.986 5.85 14.605 13.5 15.806V20.625H9.704V16h4.063v-3.525c0-4.01 2.388-6.225 6.043-6.225 1.75 0 3.582.313 3.582.313V10.5h-2.018c-1.988 0-2.607 1.233-2.607 2.499V16h4.437l-.71 4.625h-3.727v11.18c7.649-1.2 13.5-7.819 13.5-15.805z" fill="#3B82F6"/><path d="M22.495 20.625l.71-4.625h-4.438v-3.001c0-1.266.62-2.499 2.607-2.499h2.018V6.562S21.56 6.25 19.81 6.25c-3.655 0-6.043 2.215-6.043 6.225V16H9.704v4.625h4.063v11.18a16.121 16.121 0 005 0v-11.18h3.728z" fill="#fff"/></g><defs><clipPath id="clip0_2612_3312"><path fill="#fff" transform="translate(.267)" d="M0 0h32v32H0z"/></clipPath></defs></svg>
